X: 2314
T: Ms McDonald of Claranald's Strathspey
C: by Nath.Gow
%R: strathspey
B: Niel Gow & Sons "Complete Repository" v.2 p.31 #4
Z: 2021 John Chambers <jc:trillian.mit.edu>
M: C
L: 1/8
K: Bb
% - - - - - - - - - -
% Voice 1 reformatted for 2 5-bar staffs, to get similar spacing in both.
V: 1 staves=2
F/E/ |\
.D.F.D.F TB2{G}F>E | D>FB>F (G/F/).E/.D/ C>E |\
DFDF B2-Bg | (fd e/)d/c/B/ FBB ::  f/e/ |\
dBdf g3{a}b |
fB (e/d/).c/.B/ Accd/e/ |\
[1 fBdf G3{a}b | fd Tc>B FBB :|\
[2 dffb eggb | fd {d}c>B dBB |]
% - - - - - - - - - -
% Voice 2 preserves the staff layout in the book.
V: 2 clef=bass middle=d
z | B2B2 B2B2 | B2B2 c2c2 | B2B2 d2e2 |
f2F2 B2B :: z | b2b2 e2e2 | b2b2 f2f2 |\
[1 b2b2 e2e2 | f2F2 B2B :|[2 B2B2 e2e2 | f2F2 B2B |]


